X:0340
T:New york Girls.
M:6/8
L:1/8
Q:3/8=120
I: :: ||
P:ABA % Aird uses a da capo
Z:Jack Campin * www.campin.me.uk * 2009
K:G
P:A
B|BcA G2B|c2B A2d|d2c Bcd|dcB A2
B|BcA G2B|c2B A2d|d2c Bcd|cBA G2:|
P:B
B|d2d e2f|gfe d3 |B2B c2d|edc B3 |
  d2d e2f|gfe d3 |B2B c2d|edc B2
d|dcB ABc|cBA B2d|dcB ABG|FGE D2|]

